X: 290
T: The humors of Ballydehob
C: anon.
O: Ireland
B: Francis O'Neill: "The Dance Music of Ireland" (1907) no. 289
R: Double jig
Z: Transcribed by Frank Nordberg - http://www.musicaviva.com
F: http://www.musicaviva.com/abc/tunes/ireland/oneill-1001/oneill-1001-028
9.abc
M: 6/8
L: 1/8
K: G
(d/c/)|BGG AGE|DGG AGE|DGG AGA|Bdd edc|BGG AGE|DGG AGE|DEG ABc|BGG G2:|
||c|Bdd Acc|BdB AGE|DGG AGA|BAA ABc|Bdd Acc|BdB AGE|DEG ABc|BGG G2:|
W:
W:
W: From Musica Viva - http://www.musicaviva.com
W: the Internet center for free sheet music downloads.


